X:751
T:Reel 751
M:4/4
K:Dmaj
L:1/8
A|dcdA FDD2|Beed cABc|dcdA FDDF|GEAF D2DA|dcdA FDDF|GBcA BEEc|dcdA BdAF|GEAG FDD|G|FDAD FDDF|GBBG GBAG|FDAD FDDF|GEAF D2DE|FDAD FDDF|GEBE GEEG|FABc dedB|AFEF D2D|
